src/assets/Imgs/social/mirror_dark.svg

<svg fill="none" height="24" viewBox="0 0 24 24" width="24" xmlns="http://www.w3.org/2000/svg"><path d="m7.99687 9.20625c0-.13125-.06562-.2625-.13125-.32813l-.98437-1.18125v-.19687h3.01875l2.3625 5.1844 2.1-5.1844h2.8875v.19687l-.8531.78751c-.0656.06562-.1313.13124-.0656.26249v5.90623c0 .0657 0 .1969.0656.2625l.7875.7875v.1969h-4.1344v-.1969l.8531-.8531c.0657-.0656.0657-.1313.0657-.2625v-4.79062l-2.3626 5.97192h-.2624l-2.7563-5.97192v4.00312c0 .1969.06563.3281.13125.4594l1.11562 1.3125v.1969h-3.08437v-.1969l1.11562-1.3125c.13125-.1313.19688-.2625.13125-.4594z" fill="#fff"/></svg>

<svg width="24" height="24" viewBox="0 0 24 24" fill="none" xmlns="http://www.w3.org/2000/svg">
    <g id="Dis">
        <path id="medium"
            d="M7.99687 9.20625C7.99687 9.075 7.93125 8.94375 7.86562 8.87812L6.88125 7.69687V7.5H9.9L12.2625 12.6844L14.3625 7.5H17.25V7.69687L16.3969 8.48438C16.3313 8.55 16.2656 8.61562 16.3313 8.74687V14.6531C16.3313 14.7188 16.3313 14.85 16.3969 14.9156L17.1844 15.7031V15.9H13.05V15.7031L13.9031 14.85C13.9688 14.7844 13.9688 14.7187 13.9688 14.5875V9.79688L11.6062 15.7688H11.3438L8.5875 9.79688V13.8C8.5875 13.9969 8.65313 14.1281 8.71875 14.2594L9.83437 15.5719V15.7688H6.75V15.5719L7.86562 14.2594C7.99687 14.1281 8.0625 13.9969 7.99687 13.8V9.20625Z"
            fill="white" />
    </g>
</svg>
